X:5
T:Planxty Harold Brooks
C:Gord Fisch
R:planxty
M:3/4
L:1/4
K:G
D E |: G3/2A/2G |GED |B3/2c/2B | BAG | c3/2d/2c | BdB |1 AGE | DDE:|2 AGF | GBd [|
e3/2f/2e | edB | d3/2d/2d | dBd | e3/2f/2e | edB | A3 |
zBd | e3/2f/2e | edB | d3/2d/2d | dDE | G2B | AGF | G3 |]
